X:1
T:Ave Maria
T:Johann Melcior Gletle 1626-1683
T:Ave Maria
T:a 3 Bassi
T:(C) Wim Looyestijn - 2019. May freely be copied for non-commercial use.
T:(C) Wim Looyestijn - 2019. May freely be copied for non-commercial use.
T:(C) Wim Looyestijn - 2019. May freely be copied for non-commercial use.
T:(C) Wim Looyestijn - 2019. May freely be copied for non-commercial use.
T:(C) Wim Looyestijn - 2019. May freely be copied for non-commercial use.
T:(C) Wim Looyestijn - 2019. May freely be copied for non-commercial use.
C:Johann Melcior Gletle
C:1626-1683
Z:(C) Wim Looyestijn - 2019. May freely be copied for non-commercial use.
%%score [ 1 2 3 ] 4
L:1/8
Q:1/4=120
M:3/2
K:C
V:1 bass nm="Bassus-1"
V:2 bass nm="Bassus-2"
V:3 bass nm="Bassus-3"
V:4 bass nm="Bassus continuus"
V:1
 z12 | z12 | z12 |"^Adagio e grave" z4 G,6 E,2 | A,4 A,4 G,4 | F,12 | E,8 z4 | z4 D,6 B,,2 | %8
w: |||A- ve,|a- ve Ma-|ri-|a,|a- ve,|
 E,4 E,4 D,4 | C,12 | B,,8 z4 | z12 | z4 C6 B,2 | A,6 A,2 B,4- | B,4 A,8 | G,4 G,2 F,2 G,2 F,2 | %16
w: a- ve Ma-|ri-|a,||a- ve|gra- ti- a|* ple-|na, Do- * * *|
 E,12- | E,6 E,2 E,4- | E,4 E,8 | D,4 F,4 F,4 | F,6 F,2 F,4 | F,4 G,4 A,4 | _B,8 B,4 | %23
w: |* mi- nus|* te-|cum, be- ne-|di- cta tu|in mu- li-|e- ri-|
 A,2 F,2 A,2 F,2 A,2 B,2 | C4 C8 | B,8 B,4 | A,8 B,4- | B,4 G,8 | ^F,4 F,8 | E,12 | %30
w: bus, et be- ne- di- ctus|fru- ctus,|fru- ctus|ven- tris|* tu-|i Je-|sus.|
 G,4 G,2 G,2 A,4 | B,4 C8 | C4 B,8 | A,4 C4 C4 | C4 C6 B,2 | C4 C4 z4 | z4 G,4 G,4 | G,4 G,6 ^F,2 | %38
w: San- cta Ma- ri-|a, ma-|ter De-|i, o- ra,|o- ra pro|no- bis,|o- ra,|o- ra pro-|
 G,4 G,4 E,4 | E,4 E,6 D,2 | E,2 E,2 E,2 D,2 D,E,D,E, | ^C,4 C,2 E,2 E,^F,E,F, | D,4 D,4 z4 | %43
w: no- bis pec-|ca- to- ri-|bus, nunc et in ho- * * *|* ra, in ho- * * *|* ra,|
 z4 z2 D,2 E,2 E,2 | C,2 C,2 C,4 B,,4 | C,2 C_B, C2 B,A, G,4 | A,2 A,G, A,2 G,F, E,4 | %47
w: in ho- ra|mor- tis no- *|stræ. A- * * * * *|men, a- * * * * *|
 F,2 A,,4 _B,,2 C,4 | F,,2 A,_B, CB,A,B, G,4 | F,4 z4 z4 | z2 A,G, A,2 G,F, E,4 | %51
w: men, a- men, a-|men, a- * * * * * *|men,|a- * * * * *|
 F,2 F,E, F,2 E,D, ^C,4 | D,2 _B,,2 F,,2 G,,2 A,,4 | D,4 z4 z4 | z12 | z2 D,C, D,2 C,B,, A,,4 | %56
w: men, a- * * * * *|men, a- * men, a-|men,||a- * * * * *|
 B,,2 B,C DCB,C A,4 | G,2 G,F, G,2 F,E, D,4 | E,2 E,D, E,2 D,C, B,,4 | C,2 E,,4 F,,2 G,,4 | %60
w: men, a- * * * * * *|men, a- * * * * *|men, a- * * * * *|men, a- men, a-|
 C,2 E,F, G,F,E,F, D,4 | C,8 z4 | z2 A,G, A,_B,G,A, F,G,E,F, | D,8 E,4- | E,4 D,8 | C,16 |] %66
w: men, a- * * * * * *|men,|a- * * * * * * * * *|* men,|* a-|men.|
V:2
 z12 | z12 | z12 | z4 E,6 C,2 | F,4 F,4 E,4 | D,12 | C,8 z4 | z4 B,,6 G,,2 | C,4 C,4 B,,4 | A,,12 | %10
w: |||A- ve,|a- ve Ma-|ri-|a,|a- ve,|a- ve Ma-|ri-|
 G,,4 G,6 F,2 | E,6 E,2 E,4 | z4 A,6 G,2 | ^F,6 F,2 G,4- | G,4 G,6 ^F,2 | G,8 z4 | %16
w: a, a- ve|gra- ti- a,|a- ve|gra- ti- a|* ple- *|na,|
 z4 E,2 D,2 E,2 D,2 | ^C,6 C,2 D,4- | D,4 D,4 ^C,4 | D,4 D,4 C,4 | D,6 D,2 D,4 | D,4 E,4 F,4 | %22
w: Do- * * *|* mi- nus|* te- *|cum, be- ne-|di- cta tu|in mu- li-|
 F,8 E,4 | F,8 z4 | z2 C,2 E,2 C,2 E,2 F,2 | G,4 G,8 | ^F,8 G,4- | G,4 E,4 E,4 | E,8 ^D,4 | E,12 | %30
w: e- ri-|bus,|et be- ne- di- ctus|fru- ctus|ven- tris|* tu- i|Je- *|sus.|
 E,4 E,2 E,2 ^F,4 | ^G,4 A,4 A,4 | A,8 ^G,4 | A,4 A,4 G,4 | A,4 G,4 F,4 | E,4 E,4 z4 | z4 E,4 D,4 | %37
w: San- cta Ma- ri-|a, ma- ter|De- *|i, o- ra,|o- ra pro|no- bis,|o- ra,|
 E,4 D,4 C,4 | B,,4 B,,4 C,4 | B,,4 A,,6 A,,2 | ^G,,8 z4 | z2 A,2 A,2 G,2 G,A,G,A, | %42
w: o- ra pro-|no- bis pec-|ca- to- ri-|bus,|nunc et in ho- * * *|
 ^F,4 F,2 A,2 A,B,A,B, | G,4 G,2 G,2 G,2 G,2 | E,2 D,2 D,8 | C,4 z4 z4 | z2 C_B, C2 B,A, G,4 | %47
w: * ra, in ho- * * *|* ra, in ho- ra|mor- tis no-|stræ.|A- * * * * *|
 A,2 A,G, A,2 G,F, E,4 | F,2 D,2 A,,2 _B,,2 C,4 | F,,4 z4 z4 | z12 | z2 A,G, A,2 G,F, E,4 | %52
w: men, a- * * * * *|men, a- * men, a-|men,||a- * * * * *|
 F,2 D,E, F,E,D,E, ^C,4 | D,2 D,C, D,2 C,B,, A,,4 | B,,2 B,,A,, B,,2 A,,G,, ^F,,4 | %55
w: men, a- * * * * * *|men, a- * * * * *|men, a- * * * * *|
 G,,2 G,4 G,2 A,4 | G,2 E,2 B,,2 C,2 D,4 | G,,4 z4 z4 | z2 G,F, G,2 F,E, D,4 | %59
w: men, a- men, a-|men, a- * men, a-|men,|a- * * * * *|
 E,2 E,D, E,2 D,C, B,,4 | C,2 A,,2 E,,2 F,,2 G,,4 | C,8 z4 | z2 F,E, F,G,E,F, D,E,C,D, | %63
w: men, a- * * * * *|men, a- * men, a-|men,|a- * * * * * * * * *|
 B,,8 C,4- | C,4 C,6 B,,2 | C,16 |] %66
w: * men,|* a- *|men.|
V:3
 z12 | z12 | z12 | z4 C,4 C,4 | C,4 C,4 C,4 | C,8 B,,4 | C,8 z4 | z4 G,,4 G,,4 | G,,4 G,,4 G,,4 | %9
w: |||A- ve,|a- ve Ma-|ri- *|a,|a- ve,|a- ve Ma-|
 G,,8 ^F,,4 | G,,8 z4 | z4 C,6 B,,2 | A,,6 A,,2 A,,4 | D,6 C,2 B,,4 | B,,2 C,2 D,8 | G,,8 z4 | %16
w: ri- *|a,|a- ve|gra- ti- a,|gra- ti- a|ple- * *|na,|
 z4 C,2 B,,2 C,2 B,,2 | A,,6 A,,2 G,,4- | G,,4 A,,8 | D,4 _B,,4 A,,4 | _B,,6 B,,2 B,,4 | %21
w: Do- * * *|* mi- nus|* te-|cum, be- ne-|di- cta tu|
 _B,,4 B,,4 A,,4 | G,,8 G,,4 | F,,8 z4 | z12 | z2 G,,2 B,,2 G,,2 B,,2 C,2 | D,4 D,4 B,,4 | %27
w: in mu- li-|e- ri-|bus,||et be- ne- di- ctus|fru- ctus ven-|
 B,,4 C,8 | A,,4 B,,8 | E,,12 | C,4 C,2 C,2 C,4 | B,,4 A,,4 C,4 | E,12 | A,,4 F,4 E,4 | %34
w: tris tu-|i Je-|sus.|San- cta Ma- ri-|a, ma- ter|De-|i, o- ra,|
 F,4 E,4 D,4 | C,4 C,4 z4 | z4 C,4 B,,4 | C,4 B,,4 A,,4 | G,,4 G,,4 A,,4 | G,,4 F,,6 F,,2 | %40
w: o- ra pro|no- bis,|o- ra,|o- ra pro-|no- bis pec-|ca- to- ri-|
 E,,8 z4 | z12 | z2 D,2 D,2 C,2 C,D,C,D, | B,,4 B,,2 B,,2 C,2 C,2 | E,,2 F,,2 G,,8 | C,4 z4 z4 | %46
w: bus,||nunc et in ho- * * *|* ra, in ho- ra|mor- tis no-|stræ.|
 z12 | z2 C_B, C2 B,A, G,4 | A,2 F,G, A,G,F,G, E,4 | F,2 A,G, A,2 G,F, E,4 | %50
w: |A- * * * * *|men, a- * * * * * *|men, a- * * * * *|
 F,2 F,E, F,2 E,D, ^C,4 | D,2 F,,4 G,,2 A,,4 | D,,2 F,G, A,G,F,G, E,4 | D,4 z4 z4 | %54
w: men, a- * * * * *|men, a- men, a-|men, a- * * * * * *|men,|
 z2 D,C, D,2 C,B,, A,,4 | B,,2 B,,A,, B,,2 A,,G,, ^F,,4 | G,,2 G,A, B,A,G,A, ^F,4 | G,4 z4 z4 | %58
w: a- * * * * *|men, a- * * * * *|men, a- * * * * * *|men,|
 z12 | z2 G,F, G,2 F,E, D,4 | E,2 C,D, E,D,C,D, B,,4 | C,2 C,_B,, C,D,B,,C, A,,B,,G,,A,, | F,,12- | %63
w: |a- * * * * *|men, a- * * * * * *|men, a- * * * * * * * * *||
 F,,8 E,,4- | E,,4 F,,8 | C,,16 |] %66
w: * men,|* a-|men.|
V:4
 z12 | z12 | z12 | C,12 | C,12 | C,8 B,,4 | C,8 z4 | z4 G,,8 | G,,8 G,,4 | G,,8 ^F,,4 | G,,8 z4 | %11
w: |||||$2 *|||* %3|$2 *||
w: |||||||||||
 C,12 | A,,12 | D,8 B,,4- | B,,2 C,2 D,8 | G,,12 | C,4 C,6 B,,2 | A,,8 G,,4- | G,,4 A,,8 | %19
w: |z|x *|* * 4``````3|||x *|* 4````3|
w: ||||||||
 D,4 _B,,4 A,,4 | _B,,12- | B,,8 A,,4 | G,,12 | F,,8 F,4 | C,4 E,6 F,2 | G,2 G,,2 B,,6 C,2 | %26
w: * * 6||* 6|7````````6||6 * *||
w: |||||||
 D,8 B,,4- | B,,4 C,8 | A,,4 B,,8 | E,,12 | C,8 C,4 | B,,4 A,,4 C,4 | E,12 | A,,4 F,4 E,4 | %34
w: x *||* 4``````3|||x`6 * 6||* * 6|
w: ||||||||
 F,4 E,4 D,4 | C,8 z4 | z4 C,4 B,,4 | C,4 B,,4 A,,4 | G,,8 A,,4 | G,,4 F,,8 | E,,12 | A,,12 | %42
w: * * 7``6|||* 7 x`6|* 5|4 7``````6|X8`````````7|8````````7|
w: ||||||||
 D,8 C,4 | B,,8 C,4 | E,,2 F,,2 G,,8 | C,6 D,2 E,4 | F,8 E,4 | F,2 F,,2 A,,2 _B,,2 C,4 | %48
w: x 6|6 *|6 * 4````3|* z`6``5 *|* 6|* * 6 * *|
w: ||||||
 F,,2 D,2 A,,2 _B,,2 C,4 | F,,4 F,4 ^C,4 | D,4 F,,4 A,,4 | D,2 F,,4 G,,2 A,,4 | %52
w: * * 6 * *||* 6 x|* 6 * *|
w: ||||
 D,2 _B,,2 F,,2 G,,2 A,,4 | D,,6 E,,2 ^F,,4 | G,,8 ^F,,4 | G,,8 ^F,,4 | G,,2 E,2 B,,2 C,2 D,4 | %57
w: * * 6 * x|x * *|||* 5 * * *|
w: |||||
 G,,6 A,,2 B,,4 | C,8 B,,4 | C,2 E,,4 F,,2 G,,4 | C,2 A,,2 E,,2 F,,2 G,,4 | %61
w: * 6``5 *||* 6 * *|* 5 6 * *|
w: ||||
 C,,4 C,2 _B,,2 A,,2 G,,2 | F,,12- | F,,8 E,,4- | E,,4 G,,8 | C,,16 |] %66
w: ||* 6|` 4````3||
w: ||2 *|||

